Dominus_Dark_Funeral/scalable/panel/network-wireless-hotspot.svg

<svg xmlns="http://www.w3.org/2000/svg" height="24" width="24"><circle cx="12.07" cy="-12.05" r="1.51" transform="rotate(90)" fill="teal"/><g fill="teal" color="#000"><path d="M1.84 12.05A11.3 11.3 0 0 1 4.6 4.5h1.53v1.6A8.8 8.8 0 0 0 4 12.04c0 2.48.85 4.31 2.18 5.95v1.6H4.7a11.59 11.59 0 0 1-2.85-7.55zM6.6 12.14c0-2.33.79-4.34 2.15-5.4h1.08v2.15a5.14 5.14 0 0 0-1.06 3.25c0 1.34.43 2.39 1.09 3.23v2.16H8.8c-1.33-1.07-2.17-3.1-2.18-5.39z"/></g><g fill="teal" color="#000"><path d="M22.16 11.97a11.3 11.3 0 0 0-2.76-7.56h-1.53V6A8.8 8.8 0 0 1 20 11.96c0 2.49-.85 4.32-2.18 5.95v1.6h1.49a11.59 11.59 0 0 0 2.85-7.54zM17.4 12.06c0-2.34-.79-4.34-2.15-5.4h-1.08V8.8c.65.85 1.07 1.9 1.06 3.24 0 1.34-.43 2.4-1.09 3.24v2.16h1.07c1.33-1.07 2.17-3.1 2.18-5.39z"/></g></svg>

<?xml version="1.0" encoding="UTF-8" standalone="no"?>
<svg
   xmlns:dc="http://purl.org/dc/elements/1.1/"
   xmlns:cc="http://creativecommons.org/ns#"
   xmlns:rdf="http://www.w3.org/1999/02/22-rdf-syntax-ns#"
   xmlns:svg="http://www.w3.org/2000/svg"
   xmlns="http://www.w3.org/2000/svg"
   xmlns:sodipodi="http://sodipodi.sourceforge.net/DTD/sodipodi-0.dtd"
   xmlns:inkscape="http://www.inkscape.org/namespaces/inkscape"
   height="24"
   width="24"
   version="1.1"
   id="svg12"
   sodipodi:docname="network-wireless-hotspot.svg"
   inkscape:version="0.92.4 (5da689c313, 2019-01-14)">
  <metadata
     id="metadata18">
    <rdf:RDF>
      <cc:Work
         rdf:about="">
        <dc:format>image/svg+xml</dc:format>
        <dc:type
           rdf:resource="http://purl.org/dc/dcmitype/StillImage" />
        <dc:title></dc:title>
      </cc:Work>
    </rdf:RDF>
  </metadata>
  <defs
     id="defs16" />
  <sodipodi:namedview
     pagecolor="#ffffff"
     bordercolor="#666666"
     borderopacity="1"
     objecttolerance="10"
     gridtolerance="10"
     guidetolerance="10"
     inkscape:pageopacity="0"
     inkscape:pageshadow="2"
     inkscape:window-width="1112"
     inkscape:window-height="480"
     id="namedview14"
     showgrid="false"
     inkscape:zoom="9.8333333"
     inkscape:cx="1.0677966"
     inkscape:cy="12"
     inkscape:window-x="0"
     inkscape:window-y="25"
     inkscape:window-maximized="0"
     inkscape:current-layer="svg12" />
  <circle
     cx="12.07"
     cy="-12.05"
     r="1.51"
     transform="rotate(90)"
     id="circle2"
     style="fill:#008080" />
  <g
     id="g6"
     style="color:#000000;fill:#008080">
    <path
       d="M 1.84,12.05 A 11.3,11.3 0 0 1 4.6,4.5 H 6.13 V 6.1 A 8.8,8.8 0 0 0 4,12.04 c 0,2.48 0.85,4.31 2.18,5.95 v 1.6 H 4.7 A 11.59,11.59 0 0 1 1.85,12.04 Z M 6.6,12.14 C 6.6,9.81 7.39,7.8 8.75,6.74 h 1.08 v 2.15 a 5.14,5.14 0 0 0 -1.06,3.25 c 0,1.34 0.43,2.39 1.09,3.23 v 2.16 H 8.8 C 7.47,16.46 6.63,14.43 6.62,12.14 Z"
       id="path4"
       inkscape:connector-curvature="0" />
  </g>
  <g
     id="g10"
     style="color:#000000;fill:#008080">
    <path
       d="M 22.16,11.97 A 11.3,11.3 0 0 0 19.4,4.41 H 17.87 V 6 A 8.8,8.8 0 0 1 20,11.96 c 0,2.49 -0.85,4.32 -2.18,5.95 v 1.6 h 1.49 a 11.59,11.59 0 0 0 2.85,-7.54 z m -4.76,0.09 c 0,-2.34 -0.79,-4.34 -2.15,-5.4 H 14.17 V 8.8 c 0.65,0.85 1.07,1.9 1.06,3.24 0,1.34 -0.43,2.4 -1.09,3.24 v 2.16 h 1.07 c 1.33,-1.07 2.17,-3.1 2.18,-5.39 z"
       id="path8"
       inkscape:connector-curvature="0" />
  </g>
</svg>
